X: 4045
T: The PEAT BOG
R: Reel.
%R: reel
B: James Kerr "Merry Melodies" v.4 p.08 #45
Z: 2016 John Chambers <jc:trillian.mit.edu>
M: C|
L: 1/8
K: D
vdue |\
f2ed (ed)Bd | AFAd AFAd | f2ed (ed)BA | (Be)ef e2de |\
f2ed (ed)Bd | AFAd AFAd | fafd egec | (ed)dd d2 |]
cd |\
eAAA fAAA | gAAA aAAA | bagf gfed | cdef ebag |\
f2ed (ed)Bd | AFAd AFAd | fafd egec | (ed)dd d2 |]

%%sep 1 1 500
%%sep 1 1 500

